svg/fluentui-system-icons/ic_fluent_multiplier_2x_20_filled.svg

<svg width="20" height="20" viewBox="0 0 20 20" fill="none" xmlns="http://www.w3.org/2000/svg">
<path d="M5.70253 8.74834C6.11214 8.77565 6.46681 8.46858 6.49977 8.06061C6.50002 8.05843 6.50059 8.05373 6.50163 8.0468C6.50437 8.02853 6.51008 7.99635 6.52085 7.95511C6.543 7.87026 6.58262 7.76207 6.64976 7.65874C6.75887 7.49085 6.98772 7.25 7.60193 7.25C8.18192 7.25 8.46341 7.43562 8.60538 7.62997C8.76332 7.84619 8.87117 8.24014 8.76246 8.873C8.70897 9.18443 8.57582 9.33609 8.35998 9.46989C8.15605 9.5963 7.93702 9.67629 7.64105 9.78438C7.51365 9.83091 7.37199 9.88264 7.21114 9.94553C6.73722 10.1308 6.15449 10.4016 5.70673 10.9433C5.2457 11.5012 5.0026 12.2507 5.0026 13.25C5.0026 13.4489 5.0816 13.6397 5.22222 13.7803C5.36283 13.921 5.55355 14 5.75241 14H9.50144C9.91555 14 10.2513 13.6642 10.2513 13.25C10.2513 12.8358 9.91555 12.5 9.50144 12.5H6.5798C6.64867 12.2151 6.75482 12.0294 6.86253 11.8991C7.05821 11.6623 7.34132 11.5051 7.75705 11.3426C7.83686 11.3114 7.92858 11.278 8.02789 11.2419C8.37048 11.1172 8.80346 10.9597 9.14995 10.7449C9.67277 10.4208 10.1035 9.92433 10.2404 9.127C10.3894 8.25986 10.2974 7.40381 9.81621 6.74503C9.31901 6.06438 8.52191 5.75 7.60193 5.75C6.4666 5.75 5.77069 6.25915 5.39242 6.84126C5.21588 7.11293 5.12115 7.37974 5.06988 7.57614C5.04394 7.67553 5.02817 7.76054 5.01861 7.82429C5.01381 7.85628 5.01053 7.88327 5.00829 7.90443C5.00718 7.91501 5.00632 7.92418 5.00567 7.93182L5.00483 7.94213L5.00452 7.94642L5.00438 7.94834C5.0042 7.951 4.99469 8.09089 5.00426 7.95011C4.97672 8.36341 5.28934 8.72079 5.70253 8.74834ZM12.281 10.2197C11.9882 9.92678 11.5135 9.92678 11.2206 10.2197C10.9278 10.5126 10.9278 10.9874 11.2206 11.2803L11.9401 12L11.2206 12.7197C10.9278 13.0126 10.9278 13.4874 11.2206 13.7803C11.5135 14.0732 11.9882 14.0732 12.281 13.7803L13.0005 13.0607L13.72 13.7803C14.0128 14.0732 14.4876 14.0732 14.7804 13.7803C15.0732 13.4874 15.0732 13.0126 14.7804 12.7197L14.0609 12L14.7804 11.2803C15.0732 10.9874 15.0732 10.5126 14.7804 10.2197C14.4876 9.92678 14.0128 9.92678 13.72 10.2197L13.0005 10.9393L12.281 10.2197Z" fill="#212121"/>
</svg>

<svg xmlns="http://www.w3.org/2000/svg" width="20" height="20"><path d="M5.703 8.748a.75.75 0 0 0 .799-.701 1.027 1.027 0 0 1 .148-.388c.109-.168.338-.409.952-.409.58 0 .861.186 1.003.38.158.216.266.61.157 1.243a.78.78 0 0 1-.402.597c-.204.126-.423.206-.719.314-.127.047-.269.099-.43.162-.474.185-1.057.456-1.504.997-.461.558-.704 1.308-.704 2.307a.75.75 0 0 0 .75.75H9.5a.75.75 0 0 0 0-1.5H6.58c.069-.285.175-.47.283-.6.195-.238.478-.395.894-.557a12.6 12.6 0 0 1 .27-.101c.343-.125.776-.282 1.123-.497.523-.324.954-.82 1.09-1.618.15-.867.057-1.723-.424-2.382-.497-.68-1.294-.995-2.214-.995-1.135 0-1.831.51-2.21 1.091a2.527 2.527 0 0 0-.386 1.09l-.001.011v.006c0 .003-.01.143 0 .002a.75.75 0 0 0 .698.798Zm6.578 1.472a.75.75 0 1 0-1.06 1.06l.72.72-.72.72a.75.75 0 0 0 1.06 1.06l.72-.72.719.72a.75.75 0 1 0 1.06-1.06l-.72-.72.72-.72a.75.75 0 0 0-1.06-1.06l-.72.72-.719-.72Z"/></svg>
